X: 29581
T: Nóra Críona
R: jig
M: 6/8
K: Gmajor
G2A BAG|A2B cBA|dBd gdB|AdB BAF|
G2A BAG|dcB ABd|gaf gdB|A2B cBA:|
dBd gdB|ded dBc|dBd gdB|A2B cBA|
dBd gdB|ded def|gfa gdB|A2B cBA|
dBd gdB|ded dBc|dBd gdB|A2B cBA|
dBd ece|fdf g2a|bge dBG|A2B cBA||

